packages/foundations/assets/icons/functional/images/audio & video/fast_backward_10_20.svg

<svg width="20" height="20" viewBox="0 0 20 20" fill="none" xmlns="http://www.w3.org/2000/svg">
<g clip-path="url(#clip0_184_232)">
<path fill-rule="evenodd" clip-rule="evenodd" d="M15.6915 15.4745C15.0475 15.4745 14.6575 14.9285 14.6575 14.5185C14.6575 14.0495 15.3985 12.9185 15.3985 11.6485C15.3985 8.95447 13.3485 6.92448 10.8505 6.69047L11.5335 7.33448C11.6895 7.52948 11.8265 7.78347 11.8265 8.03748C11.8265 8.54448 11.3585 8.99347 10.8305 8.99347C10.5649 8.99659 10.3084 8.89699 10.1145 8.71548L7.93649 6.51947C7.75856 6.32726 7.66244 6.07333 7.66849 5.81148C7.66814 5.69126 7.69215 5.57221 7.73907 5.46153C7.78599 5.35085 7.85485 5.25082 7.94149 5.16748L10.1485 2.94248C10.2364 2.84999 10.3422 2.77633 10.4594 2.72597C10.5766 2.6756 10.7029 2.64958 10.8305 2.64948C11.0941 2.65053 11.3467 2.75566 11.5333 2.94201C11.7198 3.12835 11.8252 3.38082 11.8265 3.64447C11.8264 3.77236 11.8003 3.8989 11.75 4.01646C11.6996 4.13402 11.626 4.24016 11.5335 4.32847L11.0845 4.77747C12.796 4.93514 14.3864 5.72788 15.5426 6.99957C16.6988 8.27127 17.337 9.92976 17.3315 11.6485L17.3235 11.9605C17.2535 13.3705 16.7245 15.4745 15.6915 15.4745ZM3.68349 17.3495H5.61649C6.18249 17.3495 6.57249 16.8815 6.57249 16.3735C6.5717 16.1149 6.46861 15.8671 6.28575 15.6842C6.10289 15.5013 5.8551 15.3983 5.59649 15.3975V11.5525C5.59832 11.3787 5.55228 11.2078 5.46339 11.0585C5.37451 10.9093 5.24623 10.7873 5.09262 10.7061C4.93901 10.6249 4.766 10.5876 4.59258 10.5983C4.41916 10.6089 4.25201 10.6671 4.10949 10.7665L3.10049 11.4395C2.96804 11.5258 2.85919 11.6438 2.78377 11.7828C2.70835 11.9218 2.66873 12.0774 2.66849 12.2355C2.66849 12.8015 3.13749 13.2305 3.68349 13.2115V15.3975C3.13749 15.3975 2.72749 15.8475 2.72749 16.3935C2.72749 16.9005 3.13749 17.3495 3.68349 17.3495ZM10.2625 10.4975C11.8625 10.4975 12.9565 11.6305 12.9565 13.3675V14.4605C12.9565 16.2175 11.8235 17.3505 10.1645 17.3505C8.66149 17.3505 7.56849 16.1985 7.56849 14.5005V13.2895C7.56849 11.6295 8.70049 10.4985 10.2625 10.4985V10.4975ZM10.2425 12.4455L10.1585 12.4495C9.77549 12.4735 9.52049 12.6145 9.52049 13.2695V14.4995C9.52049 15.1835 9.73549 15.3925 10.2625 15.3825C10.7305 15.3725 10.9845 15.1435 10.9845 14.4415V13.3485C10.9845 12.5285 10.5945 12.4365 10.2425 12.4455Z" fill="#1A1C1F"/>
</g>
<defs>
<clipPath id="clip0_184_232">
<rect width="20" height="20" fill="white"/>
</clipPath>
</defs>
</svg>

<svg xmlns="http://www.w3.org/2000/svg" width="20" height="20" fill="none"><g clip-path="url(#a)"><path fill="#1A1C1F" fill-rule="evenodd" d="M15.692 15.475c-.645 0-1.034-.546-1.034-.957 0-.469.74-1.6.74-2.87 0-2.693-2.05-4.723-4.547-4.957l.682.644c.157.195.293.449.293.703 0 .507-.468.956-.995.956a1.03 1.03 0 0 1-.716-.278L7.935 6.52a1 1 0 0 1-.268-.708.9.9 0 0 1 .273-.644l2.208-2.225a.94.94 0 0 1 .682-.293 1 1 0 0 1 .995.995.95.95 0 0 1-.293.684l-.448.449a6.88 6.88 0 0 1 6.246 6.87l-.008.313c-.07 1.41-.599 3.514-1.632 3.514M3.682 17.349h1.933c.566 0 .956-.468.956-.976a.98.98 0 0 0-.976-.976v-3.844a.946.946 0 0 0-1.487-.787L3.1 11.44a.95.95 0 0 0-.432.796c0 .566.47.994 1.015.975v2.187c-.546 0-.956.45-.956.995 0 .508.41.956.956.956m6.58-6.851c1.6 0 2.694 1.133 2.694 2.87v1.092c0 1.758-1.134 2.89-2.793 2.89-1.503 0-2.596-1.152-2.596-2.85v-1.21c0-1.66 1.132-2.791 2.694-2.791zm-.02 1.947-.085.005c-.383.024-.638.165-.638.82v1.23c0 .684.215.893.742.883.468-.01.723-.24.723-.941v-1.094c0-.82-.39-.912-.742-.903" clip-rule="evenodd"/></g><defs><clipPath id="a"><path fill="#fff" d="M0 0h20v20H0z"/></clipPath></defs></svg>
